img/fotogram-logo.svg

<svg width="216" height="41" viewBox="0 0 216 41" fill="none" xmlns="http://www.w3.org/2000/svg">
<g clip-path="url(#clip0_527_605)">
<path d="M19.0192 22.3378C16.6146 22.0376 12.0308 26.1509 10.2535 30.2493C9.79643 31.3037 8.94658 33.335 9.58434 35.3707C9.72772 35.8277 10.5626 38.2473 13.4975 38.676C13.5393 38.682 13.5796 38.6879 13.6215 38.6924C15.6677 38.9478 18.5428 38.2458 20.2798 36.3296C22.0004 34.4313 22.1079 31.9131 22.1139 30.9542C22.1139 30.6854 22.1109 30.4255 22.1005 30.1791C22.0094 27.6206 21.5135 24.7425 20.0468 22.8725C19.7406 22.4827 19.4494 22.4125 19.1148 22.3513C19.0834 22.3453 19.0521 22.3408 19.0192 22.3363" fill="#F64E85"/>
<path d="M10.7105 12.7252C9.60525 12.5878 7.70393 12.4638 5.44416 13.5646C4.89303 13.8334 1.95219 15.327 0.640837 18.2873C-0.276215 20.3574 -0.341932 23.0219 1.33833 24.1839C1.83868 24.5289 2.44507 24.7111 3.07834 24.7903C4.51367 24.9695 6.07893 24.6185 6.82123 24.4348C7.12144 24.3601 7.41119 24.281 7.69049 24.2033C10.5716 23.3893 13.9291 22.0929 16.4338 20.1438C16.9566 19.7375 17.1194 19.4358 17.2807 19.0938C18.4308 16.6742 15.1031 13.3256 10.9749 12.7626C10.8927 12.7521 10.8046 12.7402 10.712 12.7282" fill="#F78A4C"/>
<path d="M26.9355 0.0507717C24.8893 -0.204629 22.0142 0.498843 20.2772 2.41509C18.5551 4.31342 18.4475 6.83158 18.4431 7.79045C18.4401 8.05929 18.4475 8.31768 18.455 8.56561C18.5476 11.1226 19.0435 14.0022 20.5117 15.8722C20.8163 16.262 21.1076 16.3337 21.4436 16.3934C21.475 16.3994 21.5079 16.4039 21.5392 16.4084C23.9439 16.7086 28.5262 12.5953 30.302 8.4984C30.7605 7.44245 31.6104 5.41119 30.9711 3.37695C30.8277 2.91992 29.9943 0.498843 27.061 0.0701881C27.0191 0.0642138 26.9788 0.0582395 26.937 0.0537588" fill="#A0F0FD"/>
<path d="M37.4768 13.9544C36.0429 13.7752 34.4762 14.1262 33.7354 14.3114C33.4367 14.3846 33.1439 14.4652 32.8661 14.5429C29.982 15.3584 26.6275 16.6548 24.1213 18.6039C23.6 19.0102 23.4387 19.3104 23.2744 19.6539C22.1258 22.0735 25.4535 25.4221 29.5817 25.9836C29.6669 25.9956 29.7595 26.0075 29.8581 26.0195C30.9633 26.1569 32.8586 26.2749 35.1124 25.1771C35.6636 24.9083 38.6029 23.4162 39.9143 20.4559C40.8313 18.3859 40.8985 15.7213 39.2183 14.5608C38.7179 14.2158 38.11 14.0336 37.4768 13.9544Z" fill="#8732F8"/>
<path d="M25.8585 26.5153C25.6763 26.4929 25.4926 26.4795 25.3089 26.4765C25.0206 26.472 24.8608 26.5467 24.6831 26.6408C23.427 27.3054 22.8445 29.958 23.5838 31.6637C23.772 32.0968 24.1484 32.9213 25.2103 33.2588C25.291 33.2842 25.4896 33.3439 25.7779 33.3798C26.3454 33.45 27.2565 33.4291 28.2617 32.8675C29.3206 32.276 30.4214 31.1215 30.5006 30.0163C30.5767 28.9424 29.6746 28.23 29.3147 27.9716C29.2146 27.8984 29.1145 27.8312 29.0174 27.767C28.1422 27.1964 27.0385 26.6617 25.8585 26.5153Z" fill="#CB4A74"/>
<path d="M9.7731 25.0561C8.67233 24.9187 6.99506 25.2712 5.61201 26.0553C5.07432 26.36 4.04675 26.9589 3.36867 28.0821C3.21632 28.3345 2.42622 29.6981 2.94001 30.9229C3.22379 31.5979 3.89142 32.1999 4.7547 32.3074C4.9862 32.3358 5.23264 32.3298 5.48954 32.279C6.66796 32.049 7.71944 30.9736 8.11075 30.551C8.21978 30.433 8.32433 30.3165 8.42291 30.2044C9.44451 29.041 10.5005 27.5937 10.9172 26.251C11.0038 25.9717 10.9635 25.8372 10.9097 25.6924C10.7768 25.3369 10.3556 25.1278 9.7731 25.0546" fill="#D4ED77"/>
<path d="M14.778 5.36339C14.2104 5.2932 13.2994 5.31411 12.2927 5.87569C11.2338 6.46714 10.133 7.62167 10.0553 8.72691C9.97915 9.80079 10.8813 10.5132 11.2412 10.7731C11.3428 10.8463 11.4429 10.9135 11.5399 10.9762C12.4152 11.5468 13.5204 12.0815 14.7003 12.2293C14.881 12.2517 15.0633 12.2652 15.247 12.2682C15.5352 12.2727 15.6965 12.1965 15.8743 12.1024C17.1304 11.4392 17.7114 8.78666 16.972 7.081C16.7839 6.64786 16.409 5.82341 15.3455 5.48587C15.2649 5.46048 15.0663 5.40073 14.7795 5.36489" fill="#FFD331"/>
<path d="M35.8009 6.4343C35.5694 6.40592 35.323 6.41189 35.0661 6.46267C33.8891 6.69418 32.8377 7.76955 32.4464 8.19073C32.3358 8.31022 32.2313 8.42522 32.1327 8.53724C31.1126 9.69924 30.0566 11.1465 29.6399 12.4907C29.5518 12.7715 29.5906 12.9059 29.6459 13.0508C29.7788 13.4063 30.2015 13.6154 30.784 13.6886C31.8863 13.826 33.5621 13.4735 34.9451 12.6879C35.4828 12.3832 36.5089 11.7858 37.1884 10.6611C37.3408 10.4087 38.1309 9.04655 37.6171 7.82033C37.3318 7.14524 36.6657 6.54333 35.8024 6.43579" fill="#66A0D1"/>
<path d="M52.106 32.2835C49.7148 32.2835 49.3847 31.7324 49.3847 30.5913C49.3847 27.5385 49.4952 24.1182 49.4952 20.9175C49.4952 16.5771 49.3115 11.9053 49.3115 8.04437C49.3115 7.16167 49.7536 6.64639 50.9306 6.64639C51.6295 6.64639 56.1162 6.68373 60.1265 6.68373H64.54C65.6796 6.68373 66.0111 7.05115 66.0111 9.33183C66.0111 11.7962 65.7901 12.1278 64.5026 12.1278C63.6931 12.0905 61.045 12.1278 58.6538 12.1278H55.8952V16.8729C58.6538 16.8355 60.8613 16.7623 63.0315 16.7623C64.1352 16.7623 64.7595 17.0566 64.7595 19.8152C64.7595 21.5806 64.3921 22.1317 63.3989 22.1691C60.6029 22.3169 58.7643 22.3528 55.8952 22.3901V29.8565C55.8952 31.6592 55.5636 32.2835 52.106 32.2835Z" fill="white"/>
<path d="M77.3384 13.6348C82.8557 13.6348 86.3865 17.0924 86.3865 22.8666C86.3865 28.6407 82.0835 32.7615 76.6021 32.7615C71.1207 32.7615 67.333 29.2307 67.333 23.5655C67.333 17.312 71.8944 13.6348 77.3369 13.6348H77.3384ZM76.8963 26.8768C78.8454 26.8768 80.1702 25.4056 80.1702 23.0144C80.1702 20.6232 78.7723 19.5195 76.9337 19.5195C74.9846 19.5195 73.5134 20.8801 73.5134 23.4177C73.5134 25.6984 75.0951 26.8753 76.8978 26.8753L76.8963 26.8768Z" fill="white"/>
<path d="M96.3167 8.33862C97.6774 8.33862 97.9716 9.18398 97.9716 10.9494C97.9716 11.611 97.9342 12.7521 97.8984 14.2233H102.422C103.637 14.2233 103.856 14.7386 103.856 16.8341C103.856 18.9295 103.635 19.409 101.907 19.409H97.7505C97.7505 20.9175 97.7132 22.4618 97.7132 24.0435C97.7132 26.3242 98.5227 26.9858 100.361 27.3533C101.133 27.5011 101.317 27.9791 101.317 28.8618C101.317 30.9946 100.618 32.7241 99.2576 32.7241C92.8949 32.7241 91.5328 28.7154 91.5328 24.4109C91.5328 22.4977 91.5328 20.8801 91.5701 19.409H89.179C88.002 19.409 87.7451 18.8578 87.7451 16.8341C87.7451 14.8103 87.9662 14.2233 89.179 14.2233H91.6807C91.718 13.1569 91.7912 12.1263 91.8285 11.1331C91.9764 9.1108 94.4766 8.33713 96.3152 8.33713L96.3167 8.33862Z" fill="white"/>
<path d="M115.15 13.6348C120.667 13.6348 124.198 17.0924 124.198 22.8666C124.198 28.6407 119.895 32.7615 114.414 32.7615C108.932 32.7615 105.145 29.2307 105.145 23.5655C105.145 17.312 109.706 13.6348 115.148 13.6348H115.15ZM114.708 26.8768C116.657 26.8768 117.982 25.4056 117.982 23.0144C117.982 20.6232 116.584 19.5195 114.745 19.5195C112.796 19.5195 111.325 20.8801 111.325 23.4177C111.325 25.6984 112.907 26.8753 114.709 26.8753L114.708 26.8768Z" fill="white"/>
<path d="M128.757 38.9777C128.757 37.9845 129.346 35.1527 130.596 35.1527C131.479 35.1527 132.912 35.7038 134.679 35.7038C137.181 35.7038 138.615 34.7479 138.946 31.2171C138.984 30.8855 139.02 30.1865 139.02 29.268C137.732 31.0334 135.929 31.8429 133.759 31.8429C129.198 31.8429 126.55 28.4585 126.55 23.1623C126.55 17.4613 130.118 13.7095 134.936 13.7095C136.628 13.7095 138.026 14.2606 139.055 15.1075V14.8864C139.055 13.599 140.453 13.3047 143.139 13.3047C144.867 13.3047 145.346 13.82 145.346 15.2538C145.346 17.2029 144.795 27.3189 144.39 31.3276C143.654 38.6103 140.418 41.0015 135.121 41.0015C133.319 41.0015 131.443 40.7072 130.23 40.413C129.164 40.1188 128.759 39.8245 128.759 38.9792L128.757 38.9777ZM135.819 26.2151C137.069 26.2151 138.761 26.2525 138.945 20.3663C138.319 19.7405 137.217 19.2999 136.149 19.2999C133.758 19.2999 132.839 20.8443 132.839 22.647C132.839 24.6334 133.979 26.2151 135.819 26.2151Z" fill="white"/>
<path d="M153.879 13.929C155.534 13.929 155.755 14.2965 155.755 15.1433C155.755 16.1739 155.645 17.7182 155.499 19.3358C156.454 15.7318 158.22 13.7453 161.126 13.7453C161.825 13.7453 162.23 13.8559 162.671 14.0769C163.075 14.2606 163.332 14.5548 163.332 15.1075C163.332 16.5786 162.229 20.6979 160.868 20.6979C160.426 20.6979 159.912 20.4037 158.735 20.4037C157.558 20.4037 156.638 20.6979 156.087 22.3528C155.793 23.3087 155.682 24.6693 155.682 28.4211C155.682 31.6577 154.983 32.394 151.709 32.394C150.311 32.394 149.355 31.9893 149.355 30.4808C149.355 27.3906 149.577 18.5636 149.577 15.6944C149.577 14.2233 150.422 13.929 153.879 13.929Z" fill="white"/>
<path d="M178.559 32.6136C176.867 32.6136 176.573 31.9878 176.499 31.0692L176.389 29.7444C175.101 31.8414 173.226 32.76 170.945 32.76C166.383 32.76 163.735 29.1918 163.735 23.6014C163.735 17.642 167.303 13.6333 172.122 13.6333C173.887 13.6333 175.322 14.2591 176.389 15.215C176.794 14.0754 177.933 13.817 180.178 13.817C182.127 13.817 182.495 14.4055 182.495 15.8393C182.495 17.9363 182.457 19.9959 182.457 21.9824C182.457 28.8603 182.935 29.1186 182.935 30.7735C182.935 32.1342 181.207 32.6121 178.558 32.6121L178.559 32.6136ZM173.004 26.8753C174.255 26.8753 175.947 26.8753 176.13 20.6591C175.505 19.9974 174.402 19.5195 173.335 19.5195C170.943 19.5195 170.025 21.1743 170.025 23.0876C170.025 25.1846 171.164 26.8768 173.004 26.8768V26.8753Z" fill="white"/>
<path d="M191.284 13.929C192.939 13.929 193.381 14.407 193.381 15.2897C193.381 15.9155 193.344 16.6877 193.271 17.533C194.227 14.9223 195.992 13.6348 198.604 13.6348C201.217 13.6348 203.091 15.0686 203.901 17.9019C204.856 15.1433 206.807 13.6348 209.566 13.6348C212.913 13.6348 215.193 16.2097 215.193 21.028C215.193 23.6761 215.01 27.979 214.751 30.8855C214.641 32.0625 214.236 32.4672 212.913 32.4672C209.05 32.4672 208.61 31.8788 208.61 30.3702C208.61 27.9059 208.904 27.8685 208.904 24.4482C208.904 20.8443 208.242 19.5195 206.697 19.5195C204.416 19.5195 204.159 21.836 204.122 24.7798C204.048 27.3906 203.974 28.8632 203.974 30.1865C203.974 32.2088 202.76 32.3567 200.406 32.3567C198.419 32.3567 197.72 31.474 197.72 29.6713C197.72 27.2442 197.941 24.853 197.941 23.455C197.941 20.5859 197.132 19.5195 195.955 19.5195C194.63 19.5195 193.711 19.8869 193.417 23.8971C193.269 25.1846 193.307 25.9941 193.307 28.3106C193.307 31.7682 192.865 32.394 189.997 32.394C187.495 32.394 186.981 31.8429 186.981 30.2239C186.981 26.6199 187.202 19.8884 187.202 15.9528C187.202 14.2248 188.012 13.9305 191.286 13.9305L191.284 13.929Z" fill="white"/>
</g>
<defs>
<clipPath id="clip0_527_605">
<rect width="215.194" height="41" fill="white"/>
</clipPath>
</defs>
</svg>

<svg xmlns="http://www.w3.org/2000/svg" width="216" height="41" fill="none"><g clip-path="url(#a)"><path fill="#F64E85" d="M19.02 22.338c-2.405-.3-6.99 3.813-8.766 7.911-.458 1.055-1.307 3.086-.67 5.122.144.457.979 2.876 3.914 3.305q.062.01.123.016c2.047.256 4.922-.446 6.659-2.362 1.72-1.899 1.828-4.417 1.834-5.376q.001-.405-.014-.775c-.09-2.558-.587-5.436-2.053-7.306-.306-.39-.598-.46-.932-.522l-.096-.015"/><path fill="#F78A4C" d="M10.71 12.725c-1.105-.137-3.006-.261-5.266.84-.551.268-3.492 1.762-4.803 4.722-.917 2.07-.983 4.735.697 5.897.5.345 1.107.527 1.74.606 1.436.18 3-.171 3.743-.355q.45-.114.87-.232c2.88-.814 6.238-2.11 8.743-4.06.523-.405.685-.707.847-1.05 1.15-2.419-2.178-5.767-6.306-6.33l-.263-.035"/><path fill="#A0F0FD" d="M26.936.05c-2.047-.255-4.922.449-6.659 2.365-1.722 1.898-1.83 4.417-1.834 5.375-.003.27.005.528.012.776.093 2.557.589 5.436 2.057 7.306.304.39.596.462.932.521q.047.008.095.015c2.405.3 6.987-3.813 8.763-7.91.459-1.056 1.308-3.087.67-5.121C30.827 2.92 29.993.499 27.06.07q-.062-.01-.124-.016"/><path fill="#8732F8" d="M37.477 13.954c-1.434-.179-3 .172-3.742.357-.298.074-.591.154-.869.232-2.884.815-6.238 2.112-8.745 4.06-.521.407-.682.707-.847 1.05-1.148 2.42 2.18 5.77 6.308 6.33q.128.019.276.037c1.105.137 3 .255 5.254-.843.552-.269 3.49-1.76 4.802-4.721.917-2.07.984-4.735-.696-5.895-.5-.345-1.108-.527-1.741-.607"/><path fill="#CB4A74" d="M25.859 26.515a5 5 0 0 0-.55-.038 1.14 1.14 0 0 0-.626.164c-1.256.664-1.838 3.317-1.1 5.023.189.433.565 1.257 1.627 1.595.081.025.28.085.568.12.567.071 1.479.05 2.484-.511 1.059-.592 2.16-1.747 2.239-2.852.076-1.074-.826-1.786-1.186-2.044q-.15-.11-.298-.205c-.875-.57-1.979-1.105-3.158-1.252"/><path fill="#D4ED77" d="M9.773 25.056c-1.1-.137-2.778.215-4.161 1-.538.304-1.565.903-2.243 2.026-.153.252-.943 1.616-.429 2.84.284.676.951 1.278 1.815 1.385.231.029.478.023.735-.028 1.178-.23 2.23-1.305 2.62-1.728q.165-.177.313-.347c1.022-1.163 2.078-2.61 2.494-3.953.087-.28.046-.414-.007-.559-.133-.355-.554-.564-1.137-.637"/><path fill="#FFD331" d="M14.778 5.363c-.568-.07-1.479-.049-2.485.513-1.06.591-2.16 1.746-2.238 2.85-.076 1.075.826 1.787 1.186 2.047q.153.109.299.203c.875.57 1.98 1.105 3.16 1.253q.271.034.547.04c.288.004.45-.072.627-.167 1.256-.663 1.837-3.315 1.098-5.021-.188-.433-.563-1.258-1.627-1.595a3 3 0 0 0-.566-.121"/><path fill="#66A0D1" d="M35.8 6.434a2.3 2.3 0 0 0-.734.029c-1.177.231-2.228 1.307-2.62 1.728q-.166.179-.313.346c-1.02 1.162-2.076 2.61-2.493 3.954-.088.28-.05.415.006.56.133.355.555.564 1.138.638 1.102.137 2.778-.216 4.161-1.001.538-.305 1.564-.902 2.243-2.027.153-.252.943-1.614.43-2.84-.286-.676-.952-1.278-1.816-1.385"/><path fill="#fff" d="M52.106 32.283c-2.391 0-2.721-.55-2.721-1.692 0-3.053.11-6.473.11-9.673 0-4.34-.183-9.013-.183-12.874 0-.882.442-1.398 1.619-1.398.699 0 5.185.038 9.196.038h4.413c1.14 0 1.471.367 1.471 2.648 0 2.464-.22 2.796-1.508 2.796-.81-.037-3.458 0-5.85 0h-2.758v4.745c2.759-.038 4.966-.11 7.136-.11 1.104 0 1.729.294 1.729 3.052 0 1.766-.368 2.317-1.361 2.354-2.796.148-4.635.184-7.504.221v7.467c0 1.802-.331 2.426-3.789 2.426M77.338 13.635c5.518 0 9.049 3.457 9.049 9.232s-4.303 9.894-9.785 9.894c-5.481 0-9.269-3.53-9.269-9.196 0-6.253 4.561-9.93 10.004-9.93zm-.442 13.242c1.95 0 3.274-1.471 3.274-3.863 0-2.39-1.398-3.494-3.236-3.494-1.95 0-3.42 1.36-3.42 3.898 0 2.28 1.581 3.457 3.384 3.457zM96.317 8.339c1.36 0 1.655.845 1.655 2.61 0 .662-.038 1.803-.074 3.274h4.524c1.215 0 1.434.516 1.434 2.611s-.221 2.575-1.949 2.575h-4.156c0 1.509-.038 3.053-.038 4.635 0 2.28.81 2.942 2.648 3.31.772.147.956.625.956 1.508 0 2.133-.699 3.862-2.06 3.862-6.362 0-7.724-4.009-7.724-8.313 0-1.913 0-3.53.037-5.002H89.18c-1.177 0-1.434-.551-1.434-2.575s.221-2.61 1.434-2.61h2.502c.037-1.067.11-2.098.148-3.09.147-2.023 2.648-2.797 4.486-2.797zM115.15 13.635c5.517 0 9.048 3.457 9.048 9.232s-4.303 9.894-9.784 9.894-9.269-3.53-9.269-9.196c0-6.253 4.561-9.93 10.003-9.93zm-.442 13.242c1.949 0 3.274-1.471 3.274-3.863 0-2.39-1.398-3.494-3.237-3.494-1.949 0-3.42 1.36-3.42 3.898 0 2.28 1.582 3.457 3.384 3.457zM128.757 38.978c0-.994.589-3.825 1.839-3.825.883 0 2.316.55 4.083.55 2.502 0 3.936-.955 4.267-4.486.038-.331.074-1.03.074-1.949-1.288 1.765-3.091 2.575-5.261 2.575-4.561 0-7.209-3.384-7.209-8.68 0-5.702 3.568-9.453 8.386-9.453 1.692 0 3.09.55 4.119 1.397v-.22c0-1.288 1.398-1.582 4.084-1.582 1.728 0 2.207.515 2.207 1.949 0 1.949-.551 12.065-.956 16.074-.736 7.282-3.972 9.674-9.269 9.674-1.802 0-3.678-.295-4.891-.589-1.066-.294-1.471-.588-1.471-1.434zm7.062-12.763c1.25 0 2.942.038 3.126-5.849-.626-.625-1.728-1.066-2.796-1.066-2.391 0-3.31 1.544-3.31 3.347 0 1.986 1.14 3.568 2.98 3.568M153.879 13.929c1.655 0 1.876.367 1.876 1.214 0 1.03-.11 2.575-.256 4.193.955-3.604 2.721-5.59 5.627-5.59.699 0 1.104.11 1.545.33.404.185.661.479.661 1.031 0 1.472-1.103 5.59-2.464 5.59-.442 0-.956-.293-2.133-.293s-2.097.294-2.648 1.949c-.294.956-.405 2.316-.405 6.068 0 3.237-.699 3.973-3.973 3.973-1.398 0-2.354-.405-2.354-1.913 0-3.09.222-11.917.222-14.787 0-1.47.845-1.765 4.302-1.765M178.559 32.614c-1.692 0-1.986-.626-2.06-1.545l-.11-1.325c-1.288 2.097-3.163 3.016-5.444 3.016-4.562 0-7.21-3.568-7.21-9.159 0-5.959 3.568-9.968 8.387-9.968 1.765 0 3.2.626 4.267 1.582.405-1.14 1.544-1.398 3.789-1.398 1.949 0 2.317.588 2.317 2.022 0 2.097-.038 4.157-.038 6.143 0 6.878.478 7.137.478 8.792 0 1.36-1.728 1.838-4.377 1.838zm-5.555-5.739c1.251 0 2.943 0 3.126-6.216-.625-.662-1.728-1.14-2.795-1.14-2.392 0-3.31 1.655-3.31 3.569 0 2.097 1.139 3.789 2.979 3.789zM191.284 13.929c1.655 0 2.097.478 2.097 1.36 0 .627-.037 1.399-.11 2.244.956-2.61 2.721-3.898 5.333-3.898s4.487 1.434 5.297 4.267c.955-2.759 2.906-4.267 5.665-4.267 3.347 0 5.627 2.575 5.627 7.393 0 2.648-.183 6.951-.442 9.858-.11 1.177-.515 1.581-1.838 1.581-3.863 0-4.303-.588-4.303-2.097 0-2.464.294-2.501.294-5.922 0-3.604-.662-4.928-2.207-4.928-2.281 0-2.538 2.316-2.575 5.26-.074 2.61-.148 4.083-.148 5.406 0 2.023-1.214 2.17-3.568 2.17-1.987 0-2.686-.882-2.686-2.685 0-2.427.221-4.818.221-6.216 0-2.87-.809-3.935-1.986-3.935-1.325 0-2.244.367-2.538 4.377-.148 1.288-.11 2.097-.11 4.414 0 3.457-.442 4.083-3.31 4.083-2.502 0-3.016-.551-3.016-2.17 0-3.604.221-10.336.221-14.271 0-1.728.81-2.022 4.084-2.022z"/></g><defs><clipPath id="a"><path fill="#fff" d="M0 0h215.194v41H0z"/></clipPath></defs></svg>
